X:739
T:Muileann Dubh
R:Reel
B:The Athole Collection
M:C|
L:1/8
K:A
a|ede^f g2fe|dGdB dGdg|ede^f g2 fe|dBdB A2 A>a|ede^f g2fe|
dGdB dBdg|ede^f gage|dBgB A2A||
a|eAed eAAB|dGdB dGGg|eAed eAAB|dGdB A2 A>a|
eAed eAAB|dGdB dGGg|ede^f gbge|dgBg A2A||

